!!!COM: Palestrina, Giovanni Perluigi da
!!!OPR: Viri Galilaei
!!!OTL: Kyrie
**kern	**kern	**kern	**kern	**kern	**kern
*Ibass	*Itenor	*Itenor	*Icalto	*Icalto	*Icant
!Bassus	!Tenor 2	!Tenor 1	!Altus 2	!Altus 1	!Cantus
*clefF4	*clefGv2	*clefGv2	*clefG2	*clefG2	*clefG2
*k[b-]	*k[b-]	*k[b-]	*k[b-]	*k[b-]	*k[b-]
*G:dor	*G:dor	*G:dor	*G:dor	*G:dor	*G:dor
*M4/2	*M4/2	*M4/2	*M4/2	*M4/2	*M4/2
=1	=1	=1	=1	=1	=1
0r	0r	0r	0r	1d	0dd
.	.	.	.	2f	.
.	.	.	.	2g	.
=2	=2	=2	=2	=2	=2
0r	0r	0r	1d	2.a	1dd
.	.	.	.	4g	.
.	.	.	2f	2a	1dd
.	.	.	2g	2b-	.
=3	=3	=3	=3	=3	=3
0r	0r	0r	2.a	2.f	1cc
.	.	.	4g	4e	.
.	.	.	2a	2f	[1dd
.	.	.	2b-	2g	.
=4	=4	=4	=4	=4	=4
0r	0r	0r	2f	2d	2dd]
.	.	.	2.a	2f	2cc
.	.	.	.	2g	2.b-
.	.	.	4g	.	.
.	.	.	[2g	2e-	.
.	.	.	.	.	8a
.	.	.	.	.	8g
=5	=5	=5	=5	=5	=5
1r	0r	1r	2g]	1d	1a
.	.	.	2f#	.	.
1G	.	[1d	1g	2r	4g
.	.	.	.	.	4a
.	.	.	.	2g	4b-
.	.	.	.	.	4cc
=6	=6	=6	=6	=6	=6
2.B-	2r	1d]	1r	2f	4dd
.	.	.	.	.	4ee
.	2d	.	.	2b-	1ff
4c	.	.	.	.	.
2d	2.f	1d	2r	2a	.
2D	.	.	2a	[2f	2dd
.	4g	.	.	.	.
=7	=7	=7	=7	=7	=7
2F	2a	1d	2f	4f]	1dd
.	.	.	.	4e	.
2G	4g	.	2b-	1d	.
.	4f	.	.	.	.
1A	4e	1c	2.a	.	1r
.	4d	.	.	.	.
.	2e	.	.	2r	.
.	.	.	4g	.	.
=8	=8	=8	=8	=8	=8
2.B-	2d	1.d	4f	2r	1r
.	.	.	4e	.	.
.	2G	.	4d	2g	.
4A	.	.	4c	.	.
2G	2B-	.	2B-	2g	2r
2C	2c	2c	[2G	2e-	2g
=9	=9	=9	=9	=9	=9
1G	2d	2.B-	2G]	1d	2.b-
.	2G	.	1g	.	.
.	.	8A	.	.	4cc
.	.	8G	.	.	.
1D	2r	1A	.	1d	1dd
.	[2d	.	2f#	.	.
=10	=10	=10	=10	=10	=10
2r	2d]	2G	0g	1r	0dd
2G	2d	2B	.	.	.
2G	1d	2B	.	2r	.
2G	.	2B	.	2g	.
=11	=11	=11	=11	=11	=11
1C	1e-	1c	0r	2g	1r
.	.	.	.	2g	.
[1G	2d	2.B	.	2.g	2r
.	2g	.	.	.	2dd
.	.	4c	.	4a	.
=12	=12	=12	=12	=12	=12
1G]	2g	2d	1r	1b	2dd
.	2g	2g	.	.	2dd
1r	1c	2g	2r	1cc	1ee-
.	.	2g	2g	.	.
=13	=13	=13	=13	=13	=13
1r	1g	1G	2b-	2r	[0dd
.	.	.	2b-	2g	.
1D	2r	1d	1a	2g	.
.	2d	.	.	2f	.
=14	=14	=14	=14	=14	=14
2G	2d	2r	1g	1b-	1dd]
2G	2d	2B-	.	.	.
1F	1f	2c	1cc	1a	1r
.	.	2c	.	.	.
=15	=15	=15	=15	=15	=15
1C	2e	2.c	2.cc	1g	0r
.	2.g	.	.	.	.
.	.	4d	8b-	.	.
.	.	.	8a	.	.
2.c	.	4e	1g	2r	.
.	4f	4f	.	.	.
.	4e	[2g	.	2g	.
4B-	4d	.	.	.	.
=16	=16	=16	=16	=16	=16
1A	1c	2g]	1a	2cc	1r
.	.	2f#	.	2cc	.
[1G	[1d	1g	2r	[1b-	[1dd
.	.	.	2d	.	.
=17	=17	=17	=17	=17	=17
1G]	1d]	2r	2g	2b-]	2dd]
.	.	2G	2g	4a	2dd
.	.	.	.	4g	.
1r	1r	2d	1f#	2.a	1dd
.	.	2d	.	.	.
.	.	.	.	4b-	.
=18	=18	=18	=18	=18	=18
0r	0r	1c	1g	1cc	1ee-
.	.	1G	2.g	[1b-	2dd
.	.	.	.	.	4g
.	.	.	4f#	.	4a
=19	=19	=19	=19	=19	=19
0r	0r	2.g	4g	1b-]	4b-
.	.	.	4a	.	4cc
.	.	.	2.b-	.	1dd
.	.	4f	.	.	.
.	.	1e-	.	1g	.
.	.	.	4a	.	.
.	.	.	[2g	.	2cc
=20	=20	=20	=20	=20	=20
1D	0r	2.d	2g]	1a	1.dd
.	.	.	2f#	.	.
.	.	4c	.	.	.
2G	.	[1B-	1g	2r	.
2G	.	.	.	2d	2dd
=21	=21	=21	=21	=21	=21
1E-	1G	2B-]	2r	2g	2ee-
.	.	2G	1g	2g	2b-
1C	2c	2r	.	1e-	1cc
.	2c	[2G	2g	.	.
=22	=22	=22	=22	=22	=22
2.G	1B-	2G]	2g	2d	2dd
.	.	1d	1b-	2g	2dd
4F	.	.	.	.	.
1E-	1G	.	.	2g	2gg
.	.	2c	2cc	2g	2gg
=23	=23	=23	=23	=23	=23
0D	2.d	4f	2dd	2b-	2.ff
.	.	4d	.	.	.
.	.	2.f	2d	1a	.
.	4c	.	.	.	4ee-
.	1B-	.	2f	.	[1dd
.	.	4e-	.	.	.
.	.	[2d	2g	[2g	.
=24	=24	=24	=24	=24	=24
0D	0A	2d]	0a	2g]	0dd]
.	.	4c	.	4f#	.
.	.	4B-	.	4e	.
.	.	2A	.	1f#	.
.	.	2d	.	.	.
=25	=25	=25	=25	=25	=25
0G	0G	0d	0b	0g	0dd
=26	=26	=26	=26	=26	=26
0r	0r	0r	1r	1.a	0r
.	.	.	[1a	.	.
.	.	.	.	2d	.
=27	=27	=27	=27	=27	=27
0r	0d	0r	2a]	2.f	1r
.	.	.	2d	.	.
.	.	.	.	4g	.
.	.	.	1f	1a	[1dd
=28	=28	=28	=28	=28	=28
0r	1.G	0r	2g	2.b-	2dd]
.	.	.	1b-	.	2g
.	.	.	.	4a	.
.	.	.	.	2g	2b-
.	2A	.	4a	4f	2cc
.	.	.	4g	4e	.
=29	=29	=29	=29	=29	=29
0r	1B-	0r	2f	4d	1dd
.	.	.	.	4e	.
.	.	.	4d	4f	.
.	.	.	4e	4g	.
.	1F	.	4f	4a	2cc
.	.	.	4g	4b-	.
.	.	.	2a	[2cc	2ff
=30	=30	=30	=30	=30	=30
0r	1G	0r	2.g	2cc]	2ee
.	.	.	.	2b-	1dd
.	.	.	4f	.	.
.	1A	.	1e	1a	.
.	.	.	.	.	2cc#
=31	=31	=31	=31	=31	=31
0r	1B-	1.d	2r	2f	0dd
.	.	.	2d	2b-	.
.	[1d	.	2f	2a	.
.	.	2G	[2g	2b-	.
=32	=32	=32	=32	=32	=32
0G	2d]	2.B-	4g]	1g	2r
.	.	.	4a	.	.
.	2G	.	1b-	.	2dd
.	.	4c	.	.	.
.	1B-	1d	.	1g	2dd
.	.	.	[2g	.	2dd
=33	=33	=33	=33	=33	=33
2.C	2.c	2.e-	4g]	0g	0gg
.	.	.	4f	.	.
.	.	.	1e-	.	.
4D	8B-	8d	.	.	.
.	8A	8c	.	.	.
1E-	4G	2B-	.	.	.
.	4A	.	.	.	.
.	4B-	4G	2e-	.	.
.	4c	4A	.	.	.
=34	=34	=34	=34	=34	=34
1BB-	4d	4B-	1d	0r	1.ff
.	4e	4c	.	.	.
.	4f	2d	.	.	.
.	4g	.	.	.	.
1C	2a	2.c	1r	.	.
.	[2g	.	.	.	2ee-
.	.	4B-	.	.	.
=35	=35	=35	=35	=35	=35
1D	2g]	1A	2r	1a	1dd
.	2f#	.	2d	.	.
1r	1g	1G	2d	[1b-	[1dd
.	.	.	2g	.	.
=36	=36	=36	=36	=36	=36
1.BB-	2.d	2.B-	4f	2b-]	0dd]
.	.	.	4e	.	.
.	.	.	4d	2f	.
.	4e	4c	4c	.	.
.	1f	[1d	1B-	[1b-	.
2BB-	.	.	.	.	.
=37	=37	=37	=37	=37	=37
2.F	2.f	2d]	0r	2b-]	0r
.	.	4c	.	4a	.
4G	4e	4B-	.	4g	.
2F	2f	2c	.	2a	.
2D	2f	2d	.	2b-	.
=38	=38	=38	=38	=38	=38
1C	2g	2.e-	0r	2cc	0r
.	2e-	.	.	2.g	.
.	.	8d	.	.	.
.	.	8c	.	.	.
1G	2d	4B-	.	.	.
.	.	4c	.	4a	.
.	2B-	4d	.	[2b-	.
.	.	4e	.	.	.
=39	=39	=39	=39	=39	=39
0F	1c	0f	1r	2b-]	2r
.	.	.	.	4a	1cc
.	.	.	.	4g	.
.	2r	.	2r	2a	.
.	[2F	.	[2a	4f	2cc
.	.	.	.	4g	.
=40	=40	=40	=40	=40	=40
0r	2F]	0r	2a]	4a	1.ff
.	.	.	.	4b-	.
.	2F	.	2a	2cc	.
.	2.c	.	2.g	2.cc	.
.	.	.	.	.	4ee
.	4d	.	4f	4a	4dd
=41	=41	=41	=41	=41	=41
0r	2c	0r	2g	1cc	2ee
.	2A	.	2a	.	2ff
.	1G	.	2.d	1b-	2gg
.	.	.	.	.	[2dd
.	.	.	4e	.	.
=42	=42	=42	=42	=42	=42
0r	1d	0r	4f	2a	4dd]
.	.	.	4g	.	4ee
.	.	.	4a	2f	1ff
.	.	.	4b-	.	.
.	1c	.	[1cc	1g	.
.	.	.	.	.	2ee
=43	=43	=43	=43	=43	=43
1F	2r	2r	1cc]	1a	1ff
.	2A	2c	.	.	.
2E	2G	2c	2r	1r	1r
2D	2F	2B	2f	.	.
=44	=44	=44	=44	=44	=44
1C	1G	1c	2f	0r	1r
.	.	.	2e	.	.
[1F	[1A	[1c	1f	.	2r
.	.	.	.	.	2cc
=45	=45	=45	=45	=45	=45
1F]	1A]	1c]	1a	1f	1.cc
1r	2r	1r	2g	2e	.
.	[2f	.	2f	2d	2b
=46	=46	=46	=46	=46	=46
2r	2f]	2r	1g	1c	1cc
2c	2e	2g	.	.	.
2B-	2d	2g	1r	1r	2r
2A	2c	2f	.	.	2cc
=47	=47	=47	=47	=47	=47
1G	2d	1g	0r	1r	2cc
.	2G	.	.	.	2b
2F	2A	1c	.	2r	1cc
2E	2G	.	.	2g	.
=48	=48	=48	=48	=48	=48
1D	1d	2B-	1r	2g	1r
.	.	2A	.	2f#	.
1r	1d	1G	2r	2g	1dd
.	.	.	2g	2b-	.
=49	=49	=49	=49	=49	=49
0r	2r	1r	2f	2a	2dd
.	2g	.	2e	2g	2cc#
.	2g	2r	1d	2a	2dd
.	2f#	2d	.	2d	4a
.	.	.	.	.	4b-
=50	=50	=50	=50	=50	=50
0r	1g	2c	2r	2e	4cc
.	.	.	.	.	8b-
.	.	.	.	.	8cc
.	.	2B-	2g	2d	1dd
.	1r	1A	2f	1a	.
.	.	.	2e	.	2cc#
=51	=51	=51	=51	=51	=51
1G	2r	1B-	2.d	1g	1dd
.	2d	.	.	.	.
.	.	.	4e	.	.
2F	2d	2A	2f	2r	1r
2E	2c#	2G	2g	2g	.
=52	=52	=52	=52	=52	=52
1D	2.d	1A	2r	2g	1a
.	.	.	2d	2f#	.
.	4c	.	.	.	.
[1G	[1B-	4G	2d	2.g	2b-
.	.	4A	.	.	.
.	.	4B-	2d	.	2g
.	.	4c	.	4a	.
=53	=53	=53	=53	=53	=53
0G]	1B-]	0d	0g	0b-	4g
.	.	.	.	.	4a
.	.	.	.	.	4b-
.	.	.	.	.	4cc
.	1G	.	.	.	1dd
=54	=54	=54	=54	=54	=54
0D	0A	0d	0f#	0a	0dd
=55	=55	=55	=55	=55	=55
0r	1r	0r	0r	1g	2r
.	.	.	.	.	2g
.	2r	.	.	[1b-	4g
.	.	.	.	.	4a
.	2G	.	.	.	4b-
.	.	.	.	.	4cc
=56	=56	=56	=56	=56	=56
0r	4G	0r	0r	1b-]	4dd
.	4A	.	.	.	4cc
.	4B-	.	.	.	4dd
.	4c	.	.	.	4ee
.	2d	.	.	2a	2ff#
.	2e-	.	.	2g	[2gg
=57	=57	=57	=57	=57	=57
0r	1d	1r	1r	1a	2gg]
.	.	.	.	.	2ff#
.	4G	2r	[1g	[1b-	2gg
.	4A	.	.	.	.
.	4B-	2G	.	.	4g
.	4c	.	.	.	4a
=58	=58	=58	=58	=58	=58
2r	1d	4G	1g]	1b-]	4b-
.	.	4A	.	.	4cc
2G	.	4B-	.	.	1dd
.	.	4c	.	.	.
4G	1r	4d	1b-	1g	.
4A	.	4c	.	.	.
4B-	.	4d	.	.	2dd
4c	.	4e	.	.	.
=59	=59	=59	=59	=59	=59
2d	0r	2f#	2a	0r	1dd
2B-	.	1g	2g	.	.
2c	.	.	1a	.	2cc
2d	.	2f#	.	.	2a
=60	=60	=60	=60	=60	=60
1G	1r	2g	1g	2r	2.b-
.	.	2G	.	2d	.
.	.	.	.	.	4cc
2r	1d	2B-	2f	4d	1dd
.	.	.	.	4e	.
2D	.	2A	2d	4f	.
.	.	.	.	4g	.
=61	=61	=61	=61	=61	=61
4D	0f	2d	1A	4a	2r
4E	.	.	.	4g	.
4F	.	2c	.	4a	2a
4G	.	.	.	4b-	.
4A	.	1F	1r	2cc	4a
4G	.	.	.	.	4b-
4A	.	.	.	2a	4cc
4B-	.	.	.	.	4dd
=62	=62	=62	=62	=62	=62
2c	2e	1r	0r	0a	2ee
1d	2d	.	.	.	2ff
.	1e	1A	.	.	1ee
2c#	.	.	.	.	.
=63	=63	=63	=63	=63	=63
2d	1d	1B-	2r	2f	1r
1G	.	.	2d	2g	.
.	1r	2B-	4d	2r	1dd
.	.	.	4e	.	.
4F	.	4A	4f	2d	.
4E	.	4G	4g	.	.
=64	=64	=64	=64	=64	=64
1D	1d	0F	4a	4d	0ff
.	.	.	4g	4e	.
.	.	.	4a	4f	.
.	.	.	4b-	4g	.
1r	[1c	.	2cc	4a	.
.	.	.	.	4g	.
.	.	.	2f	4a	.
.	.	.	.	4b-	.
=65	=65	=65	=65	=65	=65
0r	2c]	0r	1.g	2cc	2ee
.	2G	.	.	2b	2dd
.	1c	.	.	2.cc	1ee
.	.	.	2a	.	.
.	.	.	.	4b-	.
=66	=66	=66	=66	=66	=66
0r	0d	1r	2f	2a	[0dd
.	.	.	2b-	1g	.
.	.	2r	1a	.	.
.	.	2d	.	2f#	.
=67	=67	=67	=67	=67	=67
2r	2.G	4d	1g	0g	1dd]
.	.	4c	.	.	.
2G	.	4B-	.	.	.
.	4A	4A	.	.	.
4G	2B-	1G	2r	.	1r
4F	.	.	.	.	.
4E	4c	.	2g	.	.
4D	4d	.	.	.	.
=68	=68	=68	=68	=68	=68
2C	4e	2.c	4g	1r	0r
.	4f	.	4f	.	.
2c	1g	.	4e	.	.
.	.	4d	4d	.	.
4c	.	2e	2c	2r	.
4B-	.	.	.	.	.
4A	2c	2a	2e	2cc	.
4G	.	.	.	.	.
=69	=69	=69	=69	=69	=69
1F	0r	4a	2f	4cc	0r
.	.	4g	.	4b-	.
.	.	4f	2c	4a	.
.	.	4e	.	4g	.
2.B-	.	2d	2d	2f	.
.	.	2f	4B-	[2b-	.
4A	.	.	4c	.	.
=70	=70	=70	=70	=70	=70
2G	0r	2g	4d	4b-]	0r
.	.	.	4e	4g	.
2F	.	2a	2f	1cc	.
1G	.	2.g	2e	.	.
.	.	.	[2d	2b-	.
.	.	4f	.	.	.
=71	=71	=71	=71	=71	=71
1A	2r	1e	2d]	2.a	0r
.	2a	.	2c#	.	.
.	.	.	.	4g	.
1D	4a	2r	1d	4f	.
.	4g	.	.	4e	.
.	4f	2d	.	4d	.
.	4e	.	.	4c	.
=72	=72	=72	=72	=72	=72
0r	1d	4d	0r	4B-	2r
.	.	4c	.	4A	.
.	.	4B-	.	2G	2dd
.	.	4A	.	.	.
.	2g	2G	.	1B-	4dd
.	.	.	.	.	4cc
.	4g	2g	.	.	4b-
.	4f	.	.	.	4a
=73	=73	=73	=73	=73	=73
0r	4e	4g	0r	1c	2g
.	4d	4f	.	.	.
.	4c	4e	.	.	2cc
.	4d	4d	.	.	.
.	4e	2c	.	1r	4cc
.	4f	.	.	.	4b-
.	[2g	2e	.	.	4a
.	.	.	.	.	4g
=74	=74	=74	=74	=74	=74
1r	2g]	1d	2r	1r	1a
.	2f#	.	2d	.	.
2r	1g	[1G	4d	2d	1g
.	.	.	4c	.	.
2G	.	.	4B-	4d	.
.	.	.	4A	4c	.
=75	=75	=75	=75	=75	=75
4G	2r	1G]	2G	4B-	1r
4F	.	.	.	4A	.
4E	2g	.	4c	2G	.
4D	.	.	4d	.	.
2C	4g	1r	4e	2.c	2gg
.	4f	.	4f	.	.
2c	4e	.	2g	.	4gg
.	4d	.	.	4d	4ff
=76	=76	=76	=76	=76	=76
4c	2c	1r	2r	2e	4ee
4B-	.	.	.	.	4dd
4A	2.f	.	1cc	2a	4cc
4G	.	.	.	.	4b-
2F	.	2r	.	4a	2a
.	4e	.	.	4g	.
2B-	4d	2d	2b-	4f	2dd
.	4c	.	.	4e	.
=77	=77	=77	=77	=77	=77
4B-	1B-	4d	1b-	1d	2dd
4A	.	4c	.	.	.
4G	.	4B-	.	.	2dd
4F	.	4A	.	.	.
2E-	2r	2G	2b-	1g	1ee-
2C	2G	2c	4cc	.	.
.	.	.	4b-	.	.
=78	=78	=78	=78	=78	=78
2.F	2F	4c	4a	1a	2cc
.	.	4B-	4g	.	.
.	2c	4A	1f	.	2ff
4E-	.	4G	.	.	.
4D	1d	2F	.	2r	4ff
4C	.	.	.	.	4ee-
2BB-	.	2B-	2f	2b-	4dd
.	.	.	.	.	4cc
=79	=79	=79	=79	=79	=79
1E-	1G	2B-	1g	4b-	1b-
.	.	.	.	4a	.
.	.	2B-	.	4g	.
.	.	.	.	4f	.
1C	2.G	2c	1g	4e-	1ee-
.	.	.	.	4d	.
.	.	[2G	.	2c	.
.	4A	.	.	.	.
=80	=80	=80	=80	=80	=80
1G	4B-	4G]	1g	2d	0dd
.	4c	4A	.	.	.
.	4d	2B-	.	1g	.
.	4e-	.	.	.	.
1D	1d	1A	1a	.	.
.	.	.	.	2f#	.
=81	=81	=81	=81	=81	=81
0G	0d	0G	0b	0g	0dd
==	==	==	==	==	==
*-	*-	*-	*-	*-	*-
!!!CDT: 1525/^1526/-1594/2/2
!!!OCY: Italia
!!!AGN: Mass (Parody)
!!!AST: renaissance, vocal
!!!ASW: Motet 1569 (Palestrina)
!!!PWK: Masses, Book 12
!!!RNB: Cadence finals: D
!!!YOR: Le Opere Complete, v. 29, p. 159
!!!YOO: Rome, Italy: Fratelli Scalera
!!!END: 1992//
!!!EED: John Miller
!!!YEC: Copyright 2000, John Miller
!!!YEN: United States of America
!!!YEM: Rights to all derivative electronic formats reserved.
!!!YEM: Refer to licensing agreement for further details.
!!!YEM: This file must be accompanied by the licensing agreement.
!!!YEM: A copy of the licensing agreement may be found at http://www.music-cog.ohio-state.edu/HumdrumDatabases/Palestrina/license.txt
!!!EMD: converted to Humdrum by Bret Aarden
